app/client/src/assets/icons/blueprintjs/16px/remove-column.svg

<svg xmlns="http://www.w3.org/2000/svg" xml:space="preserve" viewBox="0 0 16 16"><path fill-rule="evenodd" d="M14 0H4c-.55 0-1 .45-1 1v3h2V2h3v12H5v-2H3v3c0 .55.45 1 1 1h10c.55 0 1-.45 1-1V1c0-.55-.45-1-1-1zm-1 14h-3V2h3v12zm-8.71-3.29a1.003 1.003 0 0 0 1.42-1.42L4.41 8 5.7 6.71c.19-.18.3-.43.3-.71a1.003 1.003 0 0 0-1.71-.71L3 6.59l-1.29-1.3A1.003 1.003 0 0 0 .29 6.71L1.59 8 .29 9.29a1.003 1.003 0 0 0 1.42 1.42L3 9.41l1.29 1.3z" clip-rule="evenodd"/></svg>

<?xml version="1.0" encoding="utf-8"?>
<!-- Generator: Adobe Illustrator 18.0.0, SVG Export Plug-In . SVG Version: 6.00 Build 0)  -->
<svg version="1.1" id="Layer_1" xmlns="http://www.w3.org/2000/svg" xmlns:xlink="http://www.w3.org/1999/xlink" x="0px" y="0px"
	 viewBox="0 0 16 16" enable-background="new 0 0 16 16" xml:space="preserve">
<g id="remove_column_2_">
	<g>
		<path fill-rule="evenodd" clip-rule="evenodd" d="M14,0H4C3.45,0,3,0.45,3,1v3h2V2h3v12H5v-2H3v3c0,0.55,0.45,1,1,1h10
			c0.55,0,1-0.45,1-1V1C15,0.45,14.55,0,14,0z M13,14h-3V2h3V14z M4.29,10.71C4.47,10.89,4.72,11,5,11c0.55,0,1-0.45,1-1
			c0-0.28-0.11-0.53-0.29-0.71L4.41,8l1.29-1.29C5.89,6.53,6,6.28,6,6c0-0.55-0.45-1-1-1C4.72,5,4.47,5.11,4.29,5.29L3,6.59
			L1.71,5.29C1.53,5.11,1.28,5,1,5C0.45,5,0,5.45,0,6c0,0.28,0.11,0.53,0.29,0.71L1.59,8L0.29,9.29C0.11,9.47,0,9.72,0,10
			c0,0.55,0.45,1,1,1c0.28,0,0.53-0.11,0.71-0.29L3,9.41L4.29,10.71z"/>
	</g>
</g>
</svg>
